src/lib/packages/icons/src/assets/line/note-list-check-square.svg

<svg width="24" height="24" viewBox="0 0 24 24" fill="none" xmlns="http://www.w3.org/2000/svg">
<path d="M17.625 2.25H6.375C3.715 2.25 2.25 3.715 2.25 6.375V17.625C2.25 20.285 3.715 21.75 6.375 21.75H17.625C20.285 21.75 21.75 20.285 21.75 17.625V6.375C21.75 3.715 20.285 2.25 17.625 2.25ZM20.25 17.625C20.25 19.465 19.465 20.25 17.625 20.25H6.375C4.535 20.25 3.75 19.465 3.75 17.625V6.375C3.75 4.535 4.535 3.75 6.375 3.75H17.625C19.465 3.75 20.25 4.535 20.25 6.375V17.625ZM17.25 9.5C17.25 9.914 16.914 10.25 16.5 10.25H12.5C12.086 10.25 11.75 9.914 11.75 9.5C11.75 9.086 12.086 8.75 12.5 8.75H16.5C16.914 8.75 17.25 9.086 17.25 9.5ZM17.25 14.5C17.25 14.914 16.914 15.25 16.5 15.25H12.5C12.086 15.25 11.75 14.914 11.75 14.5C11.75 14.086 12.086 13.75 12.5 13.75H16.5C16.914 13.75 17.25 14.086 17.25 14.5ZM10.03 8.30298C10.323 8.59598 10.323 9.07101 10.03 9.36401L8.69702 10.697C8.55102 10.843 8.35899 10.917 8.16699 10.917C7.97599 10.917 7.78296 10.844 7.63696 10.698L6.96997 10.031C6.67697 9.73801 6.67697 9.26297 6.96997 8.96997C7.26297 8.67797 7.73701 8.67697 8.03101 8.96997L8.16797 9.10699L8.97095 8.30402C9.26295 8.01002 9.73703 8.00998 10.03 8.30298ZM10.03 13.303C10.323 13.596 10.323 14.071 10.03 14.364L8.69702 15.697C8.55102 15.843 8.35899 15.917 8.16699 15.917C7.97599 15.917 7.78296 15.844 7.63696 15.698L6.96997 15.031C6.67697 14.738 6.67697 14.263 6.96997 13.97C7.26297 13.678 7.73701 13.677 8.03101 13.97L8.16797 14.107L8.97095 13.304C9.26295 13.01 9.73703 13.01 10.03 13.303Z" fill="currentColor"/>
</svg>

<svg xmlns="http://www.w3.org/2000/svg" width="24" height="24" fill="none"><path fill="currentColor" d="M17.625 2.25H6.375c-2.66 0-4.125 1.465-4.125 4.125v11.25c0 2.66 1.465 4.125 4.125 4.125h11.25c2.66 0 4.125-1.465 4.125-4.125V6.375c0-2.66-1.465-4.125-4.125-4.125Zm2.625 15.375c0 1.84-.785 2.625-2.625 2.625H6.375c-1.84 0-2.625-.785-2.625-2.625V6.375c0-1.84.785-2.625 2.625-2.625h11.25c1.84 0 2.625.785 2.625 2.625v11.25Zm-3-8.125a.75.75 0 0 1-.75.75h-4a.75.75 0 0 1 0-1.5h4a.75.75 0 0 1 .75.75Zm0 5a.75.75 0 0 1-.75.75h-4a.75.75 0 0 1 0-1.5h4a.75.75 0 0 1 .75.75Zm-7.22-6.197a.75.75 0 0 1 0 1.061l-1.333 1.333a.748.748 0 0 1-1.06.001l-.667-.667A.75.75 0 1 1 8.031 8.97l.137.137.803-.803a.747.747 0 0 1 1.059-.001Zm0 5a.75.75 0 0 1 0 1.061l-1.333 1.333a.748.748 0 0 1-1.06.001l-.667-.667a.75.75 0 1 1 1.061-1.061l.137.137.803-.803a.747.747 0 0 1 1.059-.001Z"/></svg>
